svgs/sharp-regular/print-slash.svg

<svg xmlns="http://www.w3.org/2000/svg" viewBox="0 0 640 512"><!--! Font Awesome Pro 6.6.0 by @fontawesome - https://fontawesome.com License - https://fontawesome.com/license (Commercial License) Copyright 2024 Fonticons, Inc. --><path d="M482.7 352l13.3 0 16 0 16 0 0-112-189.5 0L482.7 352zM276.6 192L528 192l48 0 0 48 0 112 0 48-31.4 0 76.4 59.3 19 14.7-29.4 37.9-19-14.7L19 52.7 0 38 29.4 .1l19 14.7L128 76.6 128 48l0-48 48 0L448 0l64 64 0 96-48 0 0-76.1L428.1 48 176 48l0 65.9L276.6 192zm-93.9 48L112 240l0 112 32 0 0-32 48 0 92.3 0 60.9 48L192 368l0 96 256 0 0-15 48 37.8 0 25.2-48 0-256 0-48 0 0-48 0-64-32 0-48 0 0-48 0-112 0-48 48 0 9.8 0 60.9 48z"/></svg>

<svg xmlns="http://www.w3.org/2000/svg" viewBox="0 0 640 512"><!--! Font Awesome Pro 6.4.0 by @fontawesome - https://fontawesome.com License - https://fontawesome.com/license (Commercial License) Copyright 2023 Fonticons, Inc. --><path d="M482.7 352H496h16 16V240H338.5L482.7 352zM276.6 192H528h48v48V352v48H544.6l76.4 59.3 19 14.7-29.4 37.9-19-14.7L19 52.7 0 38 29.4 .1l19 14.7L128 76.6V48 0h48H448l64 64v96H464V83.9L428.1 48H176v65.9L276.6 192zm-93.9 48H112V352h32V320h48 92.3l60.9 48H192v96H448V449l48 37.8V512H448 192 144V464 400H112 64V352 240 192h48 9.8l60.9 48z"/></svg>
